packages/ui-icons/src/Basic/32/Calendar_32.svg

<svg xmlns="http://www.w3.org/2000/svg" viewBox="0 0 40 40"><path d="M34 30V8h-7V4h-2v4H15V4h-2v4H6v22a4 4 0 0 0 4 4h20a4 4 0 0 0 4-4ZM13 10v3h2v-3h10v3h2v-3h5v5H8v-5ZM8 30V17h24v13a2 2 0 0 1-2 2H10a2 2 0 0 1-2-2Z"/></svg>

<svg id="Ready" xmlns="http://www.w3.org/2000/svg" viewBox="0 0 40 40"><title>Megaicons_work_32_1.8_cp</title><path d="M34,30V8H27V4H25V8H15V4H13V8H6V30a4,4,0,0,0,4,4H30A4,4,0,0,0,34,30ZM13,10v3h2V10H25v3h2V10h5v5H8V10ZM8,30V17H32V30a2,2,0,0,1-2,2H10A2,2,0,0,1,8,30Z"/></svg>
